!!!COM: Music21
!!!OTL: reel_Jerusalem-Ridge
!!!OMV: reel_Jerusalem-Ridge
**kern
*clefG2
*k[]
*M4/4
=1
8AL
8BJ
8cL
8dJ
4e
8eL
8fJ
=
8eL
8dJ
8cL
8eJ
8dL
8cJ
8AL
8GJ
=
8AL
8BJ
8cL
8dJ
8eL
8gJ
8aL
8eJ
=
8eL
8dJ
8cL
8eJ
8dL
8cJ
8AL
8GJ
=
8AL
8BJ
8cL
8dJ
4e
8eL
8fJ
!!linebreak:original
=
8eL
8dJ
8cL
8eJ
8dL
8cJ
8AL
8GJ
=
8AL
8BJ
8cL
8dJ
8eL
8gJ
8aL
8eJ
=
8eL
8dJ
8cL
8BJ
2A
=||
*M4/4
8AL
8BJ
8cL
8dJ
4e
8eL
8fJ
=
8eL
8dJ
8cL
8eJ
8dL
8cJ
8AL
8GJ
!!linebreak:original
=
8AL
8BJ
8cL
8dJ
8eL
8gJ
8aL
8eJ
=
8eL
8dJ
8cL
8eJ
8dL
8cJ
8AL
8GJ
=
8AL
8BJ
8cL
8dJ
4e
8eL
8fJ
=
8eL
8dJ
8cL
8eJ
8dL
8cJ
8AL
8GJ
=
8AL
8BJ
8cL
8dJ
8eL
8gJ
8aL
8eJ
!!linebreak:original
=
8eL
8dJ
8cL
8BJ
2A
=||
4e
4e 4a
4e
4e 4a
=
4e
8aL
8bJ
4cc
4cc
=
4e
4e 4a
4e 4a
8aL
8bJ
=
4cc
4cc 4ee
2cc 2ee
=
4e
4e 4a
4e
4e 4a
=
4e
8aL
8bJ
8ccL
8bJ
8ccL
8bJ
!!linebreak:original
=
8eL
8aJ
8aL
8bJ
8ccL
8bJ
8ccL
8aJ
=
8eL
8dJ
8cL
8BJ
2A
=||
4e
4e 4a
4e
4e 4a
=
4e
8aL
8bJ
4cc
4cc
=
4e
4e 4a
4e 4a
8aL
8bJ
=
4cc
4cc 4ee
2cc 2ee
=
4e
4e 4a
4e
4e 4a
!!linebreak:original
=
4e
8aL
8bJ
8ccL
8bJ
8ccL
8bJ
=
8eL
8aJ
8aL
8bJ
8ccL
8bJ
8ccL
8aJ
=
8eL
8dJ
8cL
8BJ
2A
=||
4ee
4aa
4.aa
8gg
=
4aa
4bb
2ccc
=
8ee
4gg
8aa
2gg
!!linebreak:original
=
8ggL
8bbJ
8aaL
8ggJ
8eeL
8ddJ
8bL
8ddJ
=
8ee
4aa
8gg
4aa
8aaL
8bbJ
=
8cccL
8aaJ
8bbL
8cccJ
8aaL
8bbJ
8aaL
8ggJ
=
4ee
8eeL
8ffJ
8eeL
8ddJ
8ccL
8ddJ
=
8eeL
8ccJ
8ddL
8ccJ
2a
=||
4ee
4aa
4.aa
8gg
!!linebreak:original
=
4aa
4bb
2ccc
=
8ee
4gg
8aa
2gg
=
8ggL
8bbJ
8aaL
8ggJ
8eeL
8ddJ
8bL
8ddJ
=
8ee
4aa
8gg
4aa
8aaL
8bbJ
=
8cccL
8aaJ
8bbL
8cccJ
8aaL
8bbJ
8aaL
8ggJ
=
4ee
8eeL
8ffJ
8eeL
8ddJ
8ccL
8ddJ
!!linebreak:original
=
8eeL
8ccJ
8ddL
8ccJ
2a
=||
*-
